X:1
T:Krabbvalsen
R:Vals
C:Clara Andermo
D:Krack "Krack" (Sandkvie Records 2004)
Z:ABC-transkribering av Erik Ronström
M:3/4
L:1/8
K:Am
|:"Am"A4 c2|B4 d2|cB AG ED|E2 AG AB|"Am"c2 Ac BA|"G"B2 GB AG|"Em"E2 c3 B|"Am"A6|
"Am"A4 c2|B4 d2|cB AG ED|E2 AG AB|"Am"c2 Ac BA|"Dm"B2 fe dc|"Em"B2 A2 G2|"Am"A6:|
|:"Dm"f3 f f2|d2 c2 B2|"Am"e4 c2|A3 B c2|"Dm"d4 A2|"E7"^G4 B2|"Am"c4 E2|A2 c2 d2|
"Dm"f3 f f2|d2 c2 B2|"Am"e4 c2|A3 B c2|"Dm"d3 e d2|"Am/E"c3 d c2|"Em"B2 A2 G2|"Am"A6:|

